X: 40533
T: Tommy Maguire's
R: jig
M: 6/8
K: Emixolydian
F|:GFE dcd|Bec d2 B|AFA DdA|BAF EGA|
BEE dcd|Bec dcd|edB AFB|1 EFE E2 B:|2 EFE EGB||
e2 B ege|e^dB B2 c|d2 A dfd|dAF EGB|
e2 B ege|e^dB Bgf|e^dB AFA|EFE EGB|
e2 B ege|e^dB B2 c|d2 A dfd|dAF EGA|
BEE dcd|Bec dcd|edB AFB|EFE E2 B||

